X:1
T:Mazurka : Prigord
E:12
Z:Roger Ngaret (94-95)
R:mazurka
C:Trad.
S:
A:Prigord
M:3/4
L:1/8
K:C
Q:1/4=130
e3 d c2 | e3 d c2 | g2 f2 e2 |1 d3 e fd :|2 \
d6 || B2 c2 d2 | e2 c2 de | f2 e2 d2 | e2 c2 de | f2 e2 d2 |\
e2 d2 c2 | B2 c2 d2 | c6 |]
